icons/shopping-cart-line.svg

<svg viewBox="0 0 24 24" fill="currentColor" xmlns="http://www.w3.org/2000/svg">
    <path d="M4.00488 16V4H2.00488V2H5.00488C5.55717 2 6.00488 2.44772 6.00488 3V15H18.4433L20.4433 7H8.00488V5H21.7241C22.2764 5 22.7241 5.44772 22.7241 6C22.7241 6.08176 22.7141 6.16322 22.6942 6.24254L20.1942 16.2425C20.083 16.6877 19.683 17 19.2241 17H5.00488C4.4526 17 4.00488 16.5523 4.00488 16ZM6.00488 23C4.90031 23 4.00488 22.1046 4.00488 21C4.00488 19.8954 4.90031 19 6.00488 19C7.10945 19 8.00488 19.8954 8.00488 21C8.00488 22.1046 7.10945 23 6.00488 23ZM18.0049 23C16.9003 23 16.0049 22.1046 16.0049 21C16.0049 19.8954 16.9003 19 18.0049 19C19.1095 19 20.0049 19.8954 20.0049 21C20.0049 22.1046 19.1095 23 18.0049 23Z"/>
</svg>

<svg xmlns="http://www.w3.org/2000/svg" viewBox="0 0 24 24">
    <g>
        <path fill="none" d="M0 0h24v24H0z"/>
        <path d="M4 16V4H2V2h3a1 1 0 0 1 1 1v12h12.438l2-8H8V5h13.72a1 1 0 0 1 .97 1.243l-2.5 10a1 1 0 0 1-.97.757H5a1 1 0 0 1-1-1zm2 7a2 2 0 1 1 0-4 2 2 0 0 1 0 4zm12 0a2 2 0 1 1 0-4 2 2 0 0 1 0 4z"/>
    </g>
</svg>
